src/svg/peptide-search_illustration.svg

<svg width="262" height="254" fill="none" xmlns="http://www.w3.org/2000/svg"><path d="M193.8 238.6a5 5 0 10-.001-10.001 5 5 0 00.001 10.001z" fill="#5C5CE8"/><path d="M204.9 239.6a5 5 0 10-.001-10.001 5 5 0 00.001 10.001zM226.4 233a6 6 0 100-12 6 6 0 000 12z" fill="#7474CE"/><path d="M236.3 223.5a6.5 6.5 0 100-13 6.5 6.5 0 000 13z" fill="#5C5CE8"/><path d="M242.8 211a7 7 0 100-14 7 7 0 000 14z" fill="#7474CE"/><path d="M243.8 196.9a7 7 0 100-14 7 7 0 000 14z" fill="#5C5CE8"/><path d="M241.7 182a7 7 0 100-14 7 7 0 000 14z" fill="#7474CE"/><path d="M233.8 169.6a7 7 0 100-14 7 7 0 000 14z" fill="#5C5CE8"/><path d="M220.3 163.5a8 8 0 100-16 8 8 0 000 16z" fill="#7474CE"/><path d="M202.3 165.6a9 9 0 009-9 9 9 0 00-9-9 9 9 0 00-9 9 9 9 0 009 9z" fill="#5C5CE8"/><path d="M182.7 173c5.523 0 10-4.477 10-10s-4.477-10-10-10-10 4.477-10 10 4.477 10 10 10z" fill="#7474CE"/><path d="M165.6 185.3c5.523 0 10-4.477 10-10s-4.477-10-10-10-10 4.477-10 10 4.477 10 10 10z" fill="#5C5CE8"/><path d="M149.6 200.5c5.523 0 10-4.477 10-10s-4.477-10-10-10-10 4.477-10 10 4.477 10 10 10z" fill="#7474CE"/><path d="M131.2 218.9c6.904 0 12.5-5.596 12.5-12.5s-5.596-12.5-12.5-12.5-12.5 5.596-12.5 12.5 5.596 12.5 12.5 12.5z" fill="#5C5CE8"/><path d="M106.5 233c7.456 0 13.5-6.044 13.5-13.5s-6.044-13.5-13.5-13.5S93 212.044 93 219.5s6.044 13.5 13.5 13.5z" fill="#7474CE"/><path d="M78 238c7.732 0 14-6.268 14-14s-6.268-14-14-14-14 6.268-14 14 6.268 14 14 14z" fill="#5C5CE8"/><path d="M50 229c8.284 0 15-6.716 15-15 0-8.284-6.716-15-15-15-8.284 0-15 6.716-15 15 0 8.284 6.716 15 15 15z" fill="#7474CE"/><path d="M32.8 202c9.389 0 17-7.611 17-17s-7.611-17-17-17-17 7.611-17 17 7.611 17 17 17z" fill="#5C5CE8"/><path d="M29.8 168c9.941 0 18-8.059 18-18s-8.059-18-18-18-18 8.059-18 18 8.059 18 18 18z" fill="#7474CE"/><path d="M36.3 132c10.217 0 18.5-8.283 18.5-18.5S46.517 95 36.3 95s-18.5 8.283-18.5 18.5S26.083 132 36.3 132z" fill="#5C5CE8"/><path d="M60.5 102.9c10.77 0 19.5-8.73 19.5-19.5s-8.73-19.5-19.5-19.5S41 72.63 41 83.4s8.73 19.5 19.5 19.5z" fill="#7474CE"/><path d="M97 84.9c11.046 0 20-8.954 20-20s-8.954-20-20-20-20 8.954-20 20 8.954 20 20 20z" fill="#5C5CE8"/><path d="M138.8 78c11.598 0 21-9.402 21-21s-9.402-21-21-21-21 9.402-21 21 9.402 21 21 21z" fill="#7474CE"/><path d="M217.8 124c13.807 0 25-11.193 25-25s-11.193-25-25-25-25 11.193-25 25 11.193 25 25 25zM215.8 236.8a5 5 0 10-.001-10.001 5 5 0 00.001 10.001z" fill="#5C5CE8"/><path fill-rule="evenodd" clip-rule="evenodd" d="M184.4 37.6c-13.255 0-24 10.745-24 24s10.745 24 24 24c6.205 0 11.86-2.355 16.121-6.22l3.579 2.92-1.7 2.1 23.3 18.9 6.3-7.8-23.3-18.9-1.4 1.8-3.447-2.74A23.89 23.89 0 00208.4 61.6c0-13.255-10.745-24-24-24zm-19 24c0-10.493 8.507-19 19-19s19 8.507 19 19-8.507 19-19 19-19-8.507-19-19z" fill="#33206E"/><path d="M6.2 64c12.8 9.4 18-12.8 28.4 3.6 6.1 9.7 16.5-.8 10.8-5.3C16 38.8 74.3 31.5 68 46.7c-6.3 15.2-4.6 19.6 3.7 19.3 8.2-.4 4.6-27.2 16.9-12.9 12.4 14.3 3.4-1.5 8.9-7.6s-7-2.5-9.7-9.7c-2.7-7.3.9-24 11.5-15.1s19-12.2 26.1 2.9c7.2 15.1 20.1-11.6 20.1-11.6" stroke="#00639A" stroke-width="4"/><path d="M126.8 85.5s.1 8.4-5.4 8.1c-5.5-.2-4.2-8-7.4-7.5s1.4 16-7.3 9.7c-8.7-6.3-2.2 9.3-14.4-1.2M201.1 124.2s-8.3 5.6-11.9.9c-3.6-4.7 5.1-8.8 2.4-11-2.7-2.3-15.1 11.7-14.8.3.3-11.3-10.9 4.4-8.9-12.7" stroke="#00639A" stroke-width="3"/><path d="M147.9 37.2c32.6 1.9 19.5 24.4 26.7 30.3 7.2 5.9 21.3-27.8 22.8-3.5 1.5 24.2 35.5-13.6 34.8 21.7" stroke="#00639A" stroke-width="4"/></svg>

<svg width="262" height="254" viewBox="0 0 262 254" fill="none" xmlns="http://www.w3.org/2000/svg">
<path d="M193.8 238.6C196.561 238.6 198.8 236.361 198.8 233.6C198.8 230.839 196.561 228.6 193.8 228.6C191.039 228.6 188.8 230.839 188.8 233.6C188.8 236.361 191.039 238.6 193.8 238.6Z" fill="#5C5CE8"/>
<path d="M204.9 239.6C207.661 239.6 209.9 237.361 209.9 234.6C209.9 231.839 207.661 229.6 204.9 229.6C202.139 229.6 199.9 231.839 199.9 234.6C199.9 237.361 202.139 239.6 204.9 239.6Z" fill="#7474CE"/>
<path d="M226.4 233C229.714 233 232.4 230.314 232.4 227C232.4 223.686 229.714 221 226.4 221C223.086 221 220.4 223.686 220.4 227C220.4 230.314 223.086 233 226.4 233Z" fill="#7474CE"/>
<path d="M236.3 223.5C239.89 223.5 242.8 220.59 242.8 217C242.8 213.41 239.89 210.5 236.3 210.5C232.71 210.5 229.8 213.41 229.8 217C229.8 220.59 232.71 223.5 236.3 223.5Z" fill="#5C5CE8"/>
<path d="M242.8 211C246.666 211 249.8 207.866 249.8 204C249.8 200.134 246.666 197 242.8 197C238.934 197 235.8 200.134 235.8 204C235.8 207.866 238.934 211 242.8 211Z" fill="#7474CE"/>
<path d="M243.8 196.9C247.666 196.9 250.8 193.766 250.8 189.9C250.8 186.034 247.666 182.9 243.8 182.9C239.934 182.9 236.8 186.034 236.8 189.9C236.8 193.766 239.934 196.9 243.8 196.9Z" fill="#5C5CE8"/>
<path d="M241.7 182C245.566 182 248.7 178.866 248.7 175C248.7 171.134 245.566 168 241.7 168C237.834 168 234.7 171.134 234.7 175C234.7 178.866 237.834 182 241.7 182Z" fill="#7474CE"/>
<path d="M233.8 169.6C237.666 169.6 240.8 166.466 240.8 162.6C240.8 158.734 237.666 155.6 233.8 155.6C229.934 155.6 226.8 158.734 226.8 162.6C226.8 166.466 229.934 169.6 233.8 169.6Z" fill="#5C5CE8"/>
<path d="M220.3 163.5C224.718 163.5 228.3 159.918 228.3 155.5C228.3 151.082 224.718 147.5 220.3 147.5C215.882 147.5 212.3 151.082 212.3 155.5C212.3 159.918 215.882 163.5 220.3 163.5Z" fill="#7474CE"/>
<path d="M202.3 165.6C207.271 165.6 211.3 161.571 211.3 156.6C211.3 151.629 207.271 147.6 202.3 147.6C197.329 147.6 193.3 151.629 193.3 156.6C193.3 161.571 197.329 165.6 202.3 165.6Z" fill="#5C5CE8"/>
<path d="M182.7 173C188.223 173 192.7 168.523 192.7 163C192.7 157.477 188.223 153 182.7 153C177.177 153 172.7 157.477 172.7 163C172.7 168.523 177.177 173 182.7 173Z" fill="#7474CE"/>
<path d="M165.6 185.3C171.123 185.3 175.6 180.823 175.6 175.3C175.6 169.777 171.123 165.3 165.6 165.3C160.077 165.3 155.6 169.777 155.6 175.3C155.6 180.823 160.077 185.3 165.6 185.3Z" fill="#5C5CE8"/>
<path d="M149.6 200.5C155.123 200.5 159.6 196.023 159.6 190.5C159.6 184.977 155.123 180.5 149.6 180.5C144.077 180.5 139.6 184.977 139.6 190.5C139.6 196.023 144.077 200.5 149.6 200.5Z" fill="#7474CE"/>
<path d="M131.2 218.9C138.104 218.9 143.7 213.304 143.7 206.4C143.7 199.496 138.104 193.9 131.2 193.9C124.296 193.9 118.7 199.496 118.7 206.4C118.7 213.304 124.296 218.9 131.2 218.9Z" fill="#5C5CE8"/>
<path d="M106.5 233C113.956 233 120 226.956 120 219.5C120 212.044 113.956 206 106.5 206C99.0442 206 93 212.044 93 219.5C93 226.956 99.0442 233 106.5 233Z" fill="#7474CE"/>
<path d="M78 238C85.732 238 92 231.732 92 224C92 216.268 85.732 210 78 210C70.268 210 64 216.268 64 224C64 231.732 70.268 238 78 238Z" fill="#5C5CE8"/>
<path d="M50 229C58.2843 229 65 222.284 65 214C65 205.716 58.2843 199 50 199C41.7157 199 35 205.716 35 214C35 222.284 41.7157 229 50 229Z" fill="#7474CE"/>
<path d="M32.8 202C42.1888 202 49.8 194.389 49.8 185C49.8 175.611 42.1888 168 32.8 168C23.4111 168 15.8 175.611 15.8 185C15.8 194.389 23.4111 202 32.8 202Z" fill="#5C5CE8"/>
<path d="M29.8 168C39.7411 168 47.8 159.941 47.8 150C47.8 140.059 39.7411 132 29.8 132C19.8589 132 11.8 140.059 11.8 150C11.8 159.941 19.8589 168 29.8 168Z" fill="#7474CE"/>
<path d="M36.3 132C46.5173 132 54.8 123.717 54.8 113.5C54.8 103.283 46.5173 95 36.3 95C26.0827 95 17.8 103.283 17.8 113.5C17.8 123.717 26.0827 132 36.3 132Z" fill="#5C5CE8"/>
<path d="M60.5 102.9C71.2696 102.9 80 94.1695 80 83.4C80 72.6304 71.2696 63.9 60.5 63.9C49.7304 63.9 41 72.6304 41 83.4C41 94.1695 49.7304 102.9 60.5 102.9Z" fill="#7474CE"/>
<path d="M97 84.9C108.046 84.9 117 75.9457 117 64.9C117 53.8543 108.046 44.9 97 44.9C85.9543 44.9 77 53.8543 77 64.9C77 75.9457 85.9543 84.9 97 84.9Z" fill="#5C5CE8"/>
<path d="M138.8 78C150.398 78 159.8 68.598 159.8 57C159.8 45.402 150.398 36 138.8 36C127.202 36 117.8 45.402 117.8 57C117.8 68.598 127.202 78 138.8 78Z" fill="#7474CE"/>
<path d="M217.8 124C231.607 124 242.8 112.807 242.8 99C242.8 85.1929 231.607 74 217.8 74C203.993 74 192.8 85.1929 192.8 99C192.8 112.807 203.993 124 217.8 124Z" fill="#5C5CE8"/>
<path d="M215.8 236.8C218.561 236.8 220.8 234.561 220.8 231.8C220.8 229.039 218.561 226.8 215.8 226.8C213.039 226.8 210.8 229.039 210.8 231.8C210.8 234.561 213.039 236.8 215.8 236.8Z" fill="#5C5CE8"/>
<path fill-rule="evenodd" clip-rule="evenodd" d="M184.4 37.6C171.145 37.6 160.4 48.3452 160.4 61.6C160.4 74.8548 171.145 85.6 184.4 85.6C190.605 85.6 196.26 83.245 200.521 79.3801L204.1 82.3L202.4 84.4L225.7 103.3L232 95.5L208.7 76.6L207.3 78.4L203.853 75.6598C206.714 71.7085 208.4 66.8512 208.4 61.6C208.4 48.3452 197.655 37.6 184.4 37.6ZM165.4 61.6C165.4 51.1066 173.907 42.6 184.4 42.6C194.893 42.6 203.4 51.1066 203.4 61.6C203.4 72.0934 194.893 80.6 184.4 80.6C173.907 80.6 165.4 72.0934 165.4 61.6Z" fill="#33206E"/>
<path d="M6.20001 64C19 73.4 24.2 51.2 34.6 67.6C40.7 77.3 51.1 66.8 45.4 62.3C16 38.8 74.3 31.5 68 46.7C61.7 61.9 63.4 66.3 71.7 66C79.9 65.6 76.3 38.8 88.6 53.1C101 67.4 92 51.6 97.5 45.5C103 39.4 90.5 43 87.8 35.8C85.1 28.5 88.7 11.8 99.3 20.7C109.9 29.6 118.3 8.5 125.4 23.6C132.6 38.7 145.5 12 145.5 12" stroke="#00639A" stroke-width="4"/>
<path d="M126.8 85.5C126.8 85.5 126.9 93.9 121.4 93.6C115.9 93.4 117.2 85.6 114 86.1C110.8 86.6 115.4 102.1 106.7 95.8C98 89.5 104.5 105.1 92.3 94.6" stroke="#00639A" stroke-width="3"/>
<path d="M201.1 124.2C201.1 124.2 192.8 129.8 189.2 125.1C185.6 120.4 194.3 116.3 191.6 114.1C188.9 111.8 176.5 125.8 176.8 114.4C177.1 103.1 165.9 118.8 167.9 101.7" stroke="#00639A" stroke-width="3"/>
<path d="M147.9 37.2C180.5 39.1 167.4 61.6 174.6 67.5C181.8 73.4 195.9 39.7 197.4 64C198.9 88.2 232.9 50.4 232.2 85.7" stroke="#00639A" stroke-width="4"/>
</svg>
